X:752
T:Richard Brennan's Favourite
S:Jennifer Wrigley, July 04
N:Slightly developed from Jennifer's version
Z:Nigel Gatherer
M:6/8
L:1/8
K:D
z | DFF FEF | AFF FEF | DFA dAF | EFE GFE |
    DFF FEF | AFF FEF | DFA dAF | EFE D2 :|
e | f2d edc | dcB AFA | f2d edc | dfb a2 
e | f2d edc | dcB AFA | DFA dAF | EFE D2 :|
